X:1
T:Fang the Fiddlers
C:J R Findlater
S:Manuscript collection
Z:Nigel Gatherer
L:1/8
M:C|
R:Reel
K:Dminor
z|D/D/D AD FDDF|E/E/E cG ECCE|D/D/D AD FDDF|GCGE D2 d:|
F|Dddc dAAd|cdcA GECE|Dddc dAAd|cAcE D2 d:|

